fs/content_view_gallery_28_filled.svg

<svg viewBox="0 0 28 28" fill="none" xmlns="http://www.w3.org/2000/svg" height="1em" width="1em">
  <path d="M6.75 3H17V25H6.75C4.67893 25 3 23.3211 3 21.25V6.75C3 4.67893 4.67893 3 6.75 3ZM18.5 17V11H25V17H18.5ZM18.5 25V18.5H25V21.25C25 23.3211 23.3211 25 21.25 25H18.5ZM18.5 3V9.5H25V6.75C25 4.67893 23.3211 3 21.25 3H18.5ZM7.75 7.5C7.05964 7.5 6.5 8.05964 6.5 8.75V12.25C6.5 12.9404 7.05964 13.5 7.75 13.5H12.75C13.4404 13.5 14 12.9404 14 12.25V8.75C14 8.05964 13.4404 7.5 12.75 7.5H7.75ZM8 12V9H12.5V12H8ZM6.5 16.25C6.5 16.6642 6.83579 17 7.25 17H13.25C13.6642 17 14 16.6642 14 16.25C14 15.8358 13.6642 15.5 13.25 15.5H7.25C6.83579 15.5 6.5 15.8358 6.5 16.25ZM7.25 19C6.83579 19 6.5 19.3358 6.5 19.75C6.5 20.1642 6.83579 20.5 7.25 20.5H13.25C13.6642 20.5 14 20.1642 14 19.75C14 19.3358 13.6642 19 13.25 19H7.25Z" fill="#212121"/>
</svg>

<svg viewBox="0 0 28 28" fill="none" xmlns="http://www.w3.org/2000/svg" height="1em" width="1em">
  <path d="M6.75 3H17v22H6.75A3.75 3.75 0 0 1 3 21.25V6.75A3.75 3.75 0 0 1 6.75 3ZM18.5 17v-6H25v6h-6.5Zm0 8v-6.5H25v2.75A3.75 3.75 0 0 1 21.25 25H18.5Zm0-22v6.5H25V6.75A3.75 3.75 0 0 0 21.25 3H18.5ZM7.75 7.5c-.69 0-1.25.56-1.25 1.25v3.5c0 .69.56 1.25 1.25 1.25h5c.69 0 1.25-.56 1.25-1.25v-3.5c0-.69-.56-1.25-1.25-1.25h-5ZM8 12V9h4.5v3H8Zm-1.5 4.25c0 .414.336.75.75.75h6a.75.75 0 0 0 0-1.5h-6a.75.75 0 0 0-.75.75ZM7.25 19a.75.75 0 0 0 0 1.5h6a.75.75 0 0 0 0-1.5h-6Z" fill="#212121"/>
</svg>
